resources/haticons/SVG/cancel_presentation.svg

<!-- Generated by IcoMoon.io -->
<svg version="1.1" xmlns="http://www.w3.org/2000/svg" width="24" height="24" viewBox="0 0 24 24">
<title>cancel_presentation</title>
<path d="M14.578 8.016l1.406 1.406-2.578 2.578 2.578 2.578-1.406 1.406-2.578-2.578-2.578 2.578-1.406-1.406 2.578-2.578-2.578-2.578 1.406-1.406 2.578 2.578zM21 3q0.797 0 1.406 0.609t0.609 1.406v13.969q0 0.797-0.609 1.406t-1.406 0.609h-18q-0.797 0-1.406-0.609t-0.609-1.406v-13.969q0-0.797 0.609-1.406t1.406-0.609h18zM21 19.078v-14.063h-18v14.063h18z"></path>
</svg>

<svg xmlns="http://www.w3.org/2000/svg" width="24" height="24"><path d="M14.578 8.016l1.406 1.406L13.406 12l2.578 2.578-1.406 1.406L12 13.406l-2.578 2.578-1.406-1.406L10.594 12 8.016 9.422l1.406-1.406L12 10.594zM21 3q.797 0 1.406.609t.609 1.406v13.969q0 .797-.609 1.406T21 20.999H3q-.797 0-1.406-.609t-.609-1.406V5.015q0-.797.609-1.406T3 3h18zm0 16.078V5.015H3v14.063h18z"/></svg>
